Numix-GalliumOS/22/actions/package-new.svg

<?xml version="1.0" encoding="UTF-8" standalone="no"?>
<svg
   xmlns:dc="http://purl.org/dc/elements/1.1/"
   xmlns:cc="http://creativecommons.org/ns#"
   xmlns:rdf="http://www.w3.org/1999/02/22-rdf-syntax-ns#"
   xmlns:svg="http://www.w3.org/2000/svg"
   xmlns="http://www.w3.org/2000/svg"
   xmlns:sodipodi="http://sodipodi.sourceforge.net/DTD/sodipodi-0.dtd"
   xmlns:inkscape="http://www.inkscape.org/namespaces/inkscape"
   width="22"
   viewBox="0 0 22 22"
   height="22"
   id="svg2"
   version="1.1"
   inkscape:version="0.91 r"
   sodipodi:docname="package-new.svg">
  <metadata
     id="metadata20">
    <rdf:RDF>
      <cc:Work
         rdf:about="">
        <dc:format>image/svg+xml</dc:format>
        <dc:type
           rdf:resource="http://purl.org/dc/dcmitype/StillImage" />
      </cc:Work>
    </rdf:RDF>
  </metadata>
  <defs
     id="defs18" />
  <sodipodi:namedview
     pagecolor="#ffffff"
     bordercolor="#666666"
     borderopacity="1"
     objecttolerance="10"
     gridtolerance="10"
     guidetolerance="10"
     inkscape:pageopacity="0"
     inkscape:pageshadow="2"
     inkscape:window-width="1366"
     inkscape:window-height="747"
     id="namedview16"
     showgrid="true"
     inkscape:zoom="8.0000004"
     inkscape:cx="-6.1546717"
     inkscape:cy="3.0201833"
     inkscape:window-x="0"
     inkscape:window-y="21"
     inkscape:window-maximized="1"
     inkscape:current-layer="svg2">
    <inkscape:grid
       type="xygrid"
       id="grid3049" />
  </sodipodi:namedview>
  <g
     transform="matrix(.55556 0 0 .55556 -2.33333 11)"
     id="g4">
    <path
       d="M 8.0571429,-18 C 7.0285714,-18 6,-16.971429 6,-15.942857 L 6,16 c 0,0.971429 1.0285714,2 2,2 l 32,0 c 0.971429,0 2,-1.028571 2,-2 l 0,-32 c 0,-0.971429 -1.028571,-2 -2,-2 z"
       fill="#c19553"
       id="path6" />
  </g>
  <g
     transform="matrix(.55556 0 0 .55556 -2.33333 -2.33333)"
     fill="#fff"
     id="g8">
    <path
       d="M 8.0571429,6 C 7.0285714,6 6,7.0285714 6,8.0571429 L 6.0000001,18.6 C 10,18.6 38,18.6 42,18.6 L 42,8 C 42,7.0285714 40.971429,6 40,6 z"
       fill-opacity="0.196"
       id="path10" />
    <path
       d="M 20.4,9.6000001 20.4,25.8 l 7.2,0 0,-16.1999999 z"
       fill-opacity="0.392"
       id="path12" />
  </g>
  <path
     inkscape:connector-curvature="0"
     id="path6-6"
     d="m 16.784688,12.000003 c -0.743261,-0.003 -1.161209,2.629961 -1.764327,3.064357 -0.60288,0.434225 -3.226682,-0.0093 -3.459009,0.696445 -0.232416,0.705998 2.14115,1.915442 2.367912,2.623275 0.226674,0.707551 -0.99404,3.066407 -0.394652,3.505439 0.599626,0.439202 2.4836,-1.442387 3.226861,-1.439319 0.742971,0.003 2.600878,1.920129 3.203646,1.485748 0.603007,-0.434551 -0.604038,-2.822714 -0.371437,-3.528653 0.232505,-0.705656 2.617986,-1.892569 2.391127,-2.60006 -0.226948,-0.707774 -2.859502,-0.280302 -3.459009,-0.71966 -0.599277,-0.439188 -0.998141,-3.084697 -1.741112,-3.087572 z"
     style="color:#000000;fill:#f1c40f;fill-opacity:1"
     sodipodi:nodetypes="csssscssssc" />
</svg>

<svg xmlns="http://www.w3.org/2000/svg" viewBox="0 0 22 22">
 <g transform="matrix(.55556 0 0 .55556 -2.33333 11)">
  <path d="m 8.06 -18 c -1.029 0 -2.057 1.029 -2.057 2.057 l 0 31.943 c 0 0.971 1.029 2 2 2 l 32 0 c 0.971 0 2 -1.029 2 -2 l 0 -32 c 0 -0.971 -1.029 -2 -2 -2 z" style="fill:#c19553"/>
 </g>
 <g transform="matrix(.55556 0 0 .55556 -2.33333 -2.33333)" style="fill:#fff">
  <path d="m 8.06 6 c -1.029 0 -2.057 1.029 -2.057 2.057 l 0 10.543 c 4 0 32 0 36 0 l 0 -10.6 c 0 -0.971 -1.029 -2 -2 -2 z" style="fill-opacity:0.196"/>
  <path d="m 20.4 9.6 0 16.2 l 7.2 0 0 -16.2 z" style="fill-opacity:0.392"/>
 </g>
 <path d="m 16.785 12 c -0.743 -0.003 -1.161 2.63 -1.764 3.064 -0.603 0.434 -3.227 -0.009 -3.459 0.696 -0.232 0.706 2.141 1.915 2.368 2.623 0.227 0.708 -0.994 3.066 -0.395 3.505 0.6 0.439 2.484 -1.442 3.227 -1.439 0.743 0.003 2.601 1.92 3.204 1.486 0.603 -0.435 -0.604 -2.823 -0.371 -3.529 0.233 -0.706 2.618 -1.893 2.391 -2.6 -0.227 -0.708 -2.86 -0.28 -3.459 -0.72 -0.599 -0.439 -0.998 -3.085 -1.741 -3.088 z" style="fill:#f1c40f;fill-opacity:1;color:#000"/>
</svg>
